X:1
T: Larry Grogan's Jig
C:
R:Jig
Q:180
K:G
M:6/8
L:1/16
|:dc|B2G2G2 B2G2G2|A2F2A2 A2B2c2|d3cBc A2F2D2|G2g2g2 g2d2c2|
B2G2G2 B2G2G2|A2F2A2 A2B2c2|d3cBc A2F2D2|A2G2G2 G4:|
|:f2|g3efg f2d2c2|B3ABc d2B2G2|g3efg f2d2c2|B3ABc d4g2|
g3efg f2d2c2|B3ABc d2B2c2|d3cBc A2F2D2|A2G2G2 G4|:|
